X:1
T:James Gibb editions
T:Lucescit iam o socii - Lassus
T:#
%%score [ 1 2 3 4 ]
L:1/8
Q:1/4=150
M:none
K:Ab
V:1 treble nm="Soprano" snm="S"
V:2 treble nm="Alto" snm="A"
V:3 treble-8 nm="Tenor" snm="T"
V:4 bass nm="Bass" snm="B"
V:1
"^Lucescit iam o socii""^Orlando di Lasso\n(1530-94)" F8 F4 G4 | A4 (d6 cB c4) | B12 B4 | %3
w: Lu- ce- scit|iam o * * *|so- ci-|
 =A8 z4 B4 | c2 c2 A2 A2 B4 A4 | A4 A4 G4 A4 | z4 A8 A4 | G4 F4 =E6 E2 | F4 G4 A8 | z4 B4 c4 =d4 | %10
w: i, nous|tar- dons trop à dè- jeu-|ner, ha- be- mus|tan- tum|o- ci- i, que|fe- rions nous,|que fe- rions|
 e4 c4 d4 B4 | c2 c2 d4 B4 c2 A2- | A2 A2 (B6 =AG A4) ||[M:3/2] B4 G8 | B4 =A8 | B4 c4 B4 || %16
w: nous, que fe- rions|nous, que fe- rions nous jus\-|* qu'au di\- * * *|ner. Iam|pa- ra-|ta sunt o-|
[M:4/2] A8 G4 G2 A2 |[M:4/2] B2 B2 c4 A8- | A4 c4 B8 | z4 B2 c2 d4 A4 | z8 (G8 | F8) A8 | %22
w: mni- a, met- tons|nous a ta- bleen|* bon' heure.|Si quis quae- ret:|Qua\-|* re?|
 A8 B4 d4- | d2 d2 c2 A2 B2 c2 F4 | F4 F2 F2 G2 A4 G2- | G2 F4 =E2 F4 A2 A2 | B2 G2 A2 B2 c4 B4 | %27
w: Qui- a? Trop|* ju- ner a- por- te dou-|leur, trop ju- ner a- por\-|* te dou- leur, trop ju-|ner a- por- te dou- leur,|
 z2 B4 G2 A2 A2 B2 c2 | B16 | =A16 || z8 B8 | =A4 B8 d4 | c4 A8 F4 | G8 z2 F2 A4 | G4 F4 E2 F4 E2 | %35
w: trop ju- ner a- por- te|dou-|leur.|Nunc|bi- ba- mus|non se- gni-|ter, cest trop|man- ger sans boire un|
 F8 z2 F2 A4 | G4 F2 B2 =A4 (B4- | B2 =AG) A4 B8 | z8 z4 A4 | G2 (c3 B/A/ B2) c4 c4- | c4 A4 G8 | %41
w: coup, cest trop|man- ger sans boi- re|* * * un coup.|Bi-|ba- mus * * * bis, ter|* et qua-|
 =A4 A4 B2 B2 G4 | A4 A2 A2 A2 c2 c2 d2 | c4 B6 B2 =A4 | B16 | z4 B4 A4 _G4 | F2 F2 E2 E2 D8 | %47
w: ter, puis chan- te- rons|"or- sus à coup, or- sus à|coup, or- sus à|coup".|Non ha- ben-|tes pe- cu- ni- am,|
 E4 E2 E2 F4 B4 | A4 (d6- cB c4) | d8 B8 | B4 (B6 AG A4) | F4 F4 A6 A2 | _G4 G4 F4 F4 | A6 A2 _G8 | %54
w: l'ho- ste di- ra ce|qu'il vou\- * * *|dra. I-|te, i\- * * *|te per a- li-|am vi- am, per|a- li- am|
 F8 F4 B4 | A4 _G4 F4 d4 | (c4 B6 AG A2 B2) | c4 F4 z4 F4 | A4 B4 F4 A4 | A4 F4[Q:1/4=146] F8 | %60
w: vi- am, on|le pay- ra, on|le * * * * *|pay- ra, on|le pay- ra, on|le pay- ra|
[Q:1/4=141] D4[Q:1/4=137] D4[Q:1/4=133] _G8 |[Q:1/4=130] F16 |] %62
w: quand on pour-|ra.|
V:2
 D8 C4 E4 | F4 A4 A6 G2 | F2 B,2 F8 E4 | F8 z4 G4 | A2 A2 F2 F2 _G4 E4 | F4 F4 E4 F4 | z4 F8 E4 | %7
w: Lu- ce- scit|iam o so- ci-|i, nous tar- dons|trop à|dè- jeu- ner, ha- be- mus|tan- tum o- ci-|i, que|
 E4 D4 C6 C2 | =D4 E8 F4 | z4 G4 A4 F4 | G2 G2 A4 F4 G2 G2 | A4 F4 G2 G2 A2 E2 | %12
w: fe- rions nous, que|fe- rions nous,|que fe- rions|nous, que fe- rions nous, que|fe- rions nous que fe- rions|
 F2 F2 (B,CDE F4) F4 ||[M:3/2] =D4 E8 | F4 F8 | G4 A4 G4 ||[M:4/2] F8 =E4 E2 F2 | %17
w: nous jus- qu'au * * * * di-|ner. Iam|pa- ra-|ta sunt o-|mni- a, met- tons|
[M:4/2] G4 A4 E4 A,4 | z2 A2 A4 F4 F4 | G8 z4 F2 G2 | A4 E4 z4 (E4- | E2 =DC D4) E4 F4 | %22
w: nous a ta- ble,|a ta- bleen bon'|heure. Si quis|quae- ret: Qua\-|* * * * re? Qui-|
 E8 _G6 G2 | F2 D2 E2 F2 (E4 D4- | D2 CB,) C4 E4 F2 E2 | C8 C4 E4 | B,2 B,2 F4 E4 _G4- | %27
w: a? Trop ju-|ner a- por- te dou\- *|* * ` leur, a- por- te|dou- leur, a-|por- te dou- leur, trop|
 G2 _G2 F2 D2 E2 F2 E2 C2 | F4 F4 _G4 G4 | F16 || z8 F8 | F4 G8 A4- | A4 E4 F4 =D4 | E8 z8 | %34
w: * ju- ner a- por- te dou- leur,|a- por- te dou-|leur.|Nunc|bi- ba- mus|* non se- gni-|ter,|
 z2 B,2 D4 C4 B,4- | B,4 A,4 D4 C4 | B,6 F2 F2 F2 D2 E2 | F4 F4 D8 | z8 z4 F4 | E4 D4 C4 E4- | %40
w: cest trop man- ger|* sans boire un|coup, cest trop man- ger sans|boire un coup.|Bi-|ba- mus bis, ter|
 E2 C4 (F4 =E=D E4) | F6 F2 F2 F2 E4 | E4 E2 F2 E2 A2 A2 A2 | A4 F4 _G4 F4 | =D8 z4 z2 F2- | %45
w: * et qua\- * * *|ter, puis chan- te- rons|"or- sus à coup, or- sus à|coup, or- sus à|coup". Non|
 F2 E4 D4 C2 E4 | B,6 B,2 B,8 | C4 C2 C2 D4 F4- | F4 A4 c8 | F4 F8 _G4 | F16 | D4 z2 B,2 E6 F2 | %52
w: * ha- ben- tes pe-|cu- ni- am,|l'ho- ste di- ra ce|* qu'il vou-|dra. I- te,|i-|te per a- li-|
 D4 E4 C4 D4 | C6 D2 B,4 (B,4- | B,2 =A,G, A,4) B,4 F4 | F4 E4 D4 F4 | E4 D4 C8 | %57
w: am vi- am, per|a- li- am vi\-|* * * * am, on|le pay- ra, on|le pay- ra,|
 z4 (B,6 A,G, A,4) | D4 D4 B,4 z2 F2 | E4 D4 C8 | z4 B,4 E4 E4 | =D16 |] %62
w: on * * *|le pay- ra, on|le pay- ra|quand on pour-|ra.|
V:3
 B8 =A4 B4 | d4 (f6 ed e4) | d12 B4 | c8 z4 e4 | e2 e2 d2 d2 d4 c4 | d8 z4 d4 | B4 d6 c4 c2 | %7
w: Lu- ce- scit|iam o * * *|so- ci-|i, nous|tar- dons trop à dè- jeu-|ner, ha-|be- mus tan- tum|
 B6 B2 G8 | B8 c4 d4 | e8 z4 B4- | B2 c4 A4 B4 e2- | e2 f4 B4 e4 c2 | (d6- c=B c4) c4 || %13
w: o- ci- i,|que fe- rions|nous, que|* fe- rions nous, que|* fe- rions nous jus-|qu'au * * * di-|
[M:3/2] B4 B8 | d4 c8 | e4 e4 e4 ||[M:4/2] c8 c8 |[M:4/2][K:treble-8] z4 A2 B2 c2 d2 e4 | %18
w: ner. Iam|pa- ra-|ta sunt o-|mni- a,|met- tons nous a ta-|
 f4 (e6 =dc d4) | e8 B2 c2 d4 | c8 B8- | B8 c4 (d4- | d2 cB c4) d4 B4- | B2 B2 A2 F2 G2 A2 (B4- | %24
w: bleen bon' * * *|heure. Si quis quae-|ret: Qua\-|* re? Qui\-|* * * * a? Trop|* ju- ner a- por- te dou\-|
 B2 AG A4) B2 c2 B4 | A4 G4 F4 c4 | e4 d4 z2 c2 e4 | d2 d2 d2 B2 c4 B2 (e2- | e2 =dc d4) e8 | %29
w: * * * * leur, a- por-|te dou- leur, trop|ju- ner, trop ju-|ner, trop ju- ner a- por- te|* * * * dou-|
 c16 || z8 d8 | c4 e8 f4 | e4 c8 B4 | B4 z2 B2 d4 c4 | B2 E2 B2 A4 F2 z2 B2 | d4 c4 B4 e4 | %36
w: leur.|Nunc|bi- ba- mus|non se- gni-|ter, cest trop man-|ger sans boire un coup, cest|trop man- ger sans|
 e4 d4 c4 B4 | c4 c4 B4 z2 B2 | (A2 d3 c/B/) c2 d8 | z8 z4 A4- | A4 F4 c8 | c4 c4 d2 d2 B4 | %42
w: boire un coup, sans|boire un coup. Bi-|ba\- * * * mus bis,|ter|* et qua-|ter, puis chan- te- rons|
 c4 c2 d2 c2 e2 e2 f2 | e4 =d4 e4 c4 | B4 f4 e4 d4 | c4 B4 f2 f2 B4 | z2 F2 _G2 G2 F8 | %47
w: "or- sus à coup, or- sus à|coup, or- sus à|coup". Non ha- ben-|tes pe- cu- ni- am,|pe- cu- ni- am,|
 z4 A4 A2 A2 d4- | d2 c2 f4 e8 | d8 d8 | d4 (d6 cB c4) | B4 d4 c6 d2 | B4 B4 =A4 z2 B2 | %53
w: l'ho- ste di- ra|* ce qu'il vou-|dra. I-|te, i\- * * *|te per a- li-|am vi- am, per|
 e6 f2 d4 e4 | c8 d8 | d4 B4 B6 F2 | A4 B4 F4 f4 | e4 d4 c8 | f6 e2 d4 c4- | c4 (B6 =AG A4) | %60
w: a- li- am vi-|am, on|le pay- ra, on|le pay- ra, on|le pay- ra,|on le pay- ra|* quand * * *|
 B8 B8 | B16 |] %62
w: on pour-|ra.|
V:4
 B,,8 F,4 E,4 | D,8 A,8 | (B,6 A,2 _G,4) G,4 | F,8 z4 E,4 | A,2 A,2 D,2 D,2 _G,4 A,4 | D,8 z4 D,4 | %6
w: Lu- ce- scit|iam o|so\- * * ci-|i, nous|tar- dons trop à dè- jeu-|ner, ha-|
 E,4 D,4 F,4 A,4 | E,4 B,,4 C,8 | z4 E,4 A,4 F,4 | E,8 z8 | E,4 F,4 D,4 E,4 | A,4 B,4 E,4 A,4 | %12
w: be- mus tan- tum|o- ci- i,|que fe- rions|nous,|que fe- rions nous,|que fe- rions nous,|
 D,4 _G,4 F,8 ||[M:3/2] B,,4 E,8 | B,,4 F,8 | E,4 A,4 E,4 ||[M:4/2] F,8 C,8 | %17
w: jus- qu'au di-|ner. Iam|pa- ra-|ta sunt o-|mni- a,|
[M:4/2] z8 A,2 B,2 C2 C2 | D4 A,4 B,8 | E,8 z8 | F,2 G,2 A,4 E,8 | z8 A,8- | A,8 _G,8 | z16 | %24
w: met- tons nous a|ta- bleen bon'|heure.|Si quis quae- ret:|Qui\-|* a?||
 F,6 F,2 E,2 C,2 D,2 E,2 | F,4 C,4 A,6 A,2 | G,2 E,2 F,2 G,2 A,4 E,4 | B,6 B,2 A,2 F,2 G,2 A,2 | %28
w: Trop ju- ner a- por- te|dou- leur, trop ju-|ner a- por- te dou- leur,|trop ju- ner a- por- te|
 (B,8 E,8) | F,16 || z8 B,8 | F,4 E,8 D,4 | A,8 F,4 B,,4 | E,8 z8 | z4 z2 F,2 A,4 G,4 | %35
w: dou\- *|leur.|Nunc|bi- ba- mus|non se- gni-|ter,|cest trop man-|
 F,4 F,4 B,,4 A,,4 | E,4 B,4 F,4 _G,4 | F,8 z4 _G,4 | F,4 E,4 D,8 | z8 z8 | z8 C,8 | %41
w: ger sans boire un|coup, sans boire un|coup. Bi-|ba- mus bis,||qua-|
 F,4 F,4 B,2 B,2 E,4 | A,4 A,2 D,2 A,2 A,2 A,2 D2 | A,4 B,4 E,4 F,4 | B,,8 z4 B,4 | %45
w: ter, puis chan- te- rons|"or- sus à coup, or- sus à|coup, or- sus à|coup". Non|
 A,4 G,4 F,4 E,4 | =D,4 E,4 B,,8 | A,,4 A,,2 A,,2 D,4 B,,4 | F,4 D,4 A,8 | z4 B,8 _G,4 | B,8 F,8 | %51
w: ha- ben- tes pe-|cu- ni- am,|l'ho- ste di- ra ce|qu'il vou- dra.|I- te,|i- te|
 z4 B,4 A,6 F,2 | _G,4 E,4 F,4 B,4 | A,6 F,2 _G,4 E,4 | F,8 z4 B,,4 | D,4 E,4 B,,8 | z8 z4 F,4 | %57
w: per a- li-|am vi- am, per|a- li- am vi-|am, on|le pay ra,|on|
 A,4 B,4 F,6 E,2 | D,2 C,2 B,,4 z4 F,4 | A,4 B,4 F,4 F,4 | _G,8 E,8 | B,,16 |] %62
w: le pay- ra, on|le pay- ra, on|le pay- ra quand|on pour-|ra.|

